material/.icons/material/hand-okay.svg

<svg xmlns="http://www.w3.org/2000/svg" viewBox="0 0 24 24"><path d="M13.3 19.26l5.66-5.65 2.12 2.12-5.66 5.65-2.12-2.12m3.2-8.13l-3.1-3.08a1.68 1.68 0 00-.4-.29l-1.12-4.29a1.001 1.001 0 00-1.94.49L11 8.03 8.67 3.19c-.23-.5-.83-.69-1.33-.48-.5.24-.71.84-.47 1.34l1.69 3.54-3.37-3.34c-.39-.39-1.03-.39-1.42 0-.39.4-.38 1.03.01 1.42l3.72 3.7-.7.27-1.08.43-1.91 1.32s-.81 1.05-.88 1.5c-.08.45.79 2.71.79 2.71h.01c.16.34.5.58.9.58a1 1 0 001-1c0-.1-.03-.18-.06-.27l.02-.01L5 13.17l1.23-.98c.47.02 1.48.1 1.97.13 2.73 2.45.15 3.41.15 3.41l-3.46 1.06-.17.14a.94.94 0 00-.3.75l.02 1.07 6.43-.5c.38.01.74-.13 1.02-.4l4.61-4.6c.53-.54.55-1.55 0-2.12z"/></svg>

<?xml version="1.0" encoding="UTF-8"?><!DOCTYPE svg PUBLIC "-//W3C//DTD SVG 1.1//EN" "http://www.w3.org/Graphics/SVG/1.1/DTD/svg11.dtd"><svg xmlns="http://www.w3.org/2000/svg" xmlns:xlink="http://www.w3.org/1999/xlink" version="1.1" id="mdi-hand-okay" width="24" height="24" viewBox="0 0 24 24"><path d="M13.3,19.26L18.96,13.61L21.08,15.73L15.42,21.38L13.3,19.26M16.5,11.13L13.4,8.05C13.27,7.92 13.13,7.83 13,7.76L11.88,3.47C11.74,2.93 11.2,2.61 10.66,2.75C10.13,2.88 9.81,3.43 9.94,3.96L11,8.03V8.03L8.67,3.19C8.44,2.69 7.84,2.5 7.34,2.71C6.84,2.95 6.63,3.55 6.87,4.05L8.56,7.59L5.19,4.25C4.8,3.86 4.16,3.86 3.77,4.25C3.38,4.65 3.39,5.28 3.78,5.67L7.5,9.37L6.8,9.64L5.72,10.07L3.81,11.39C3.81,11.39 3,12.44 2.93,12.89C2.85,13.34 3.72,15.6 3.72,15.6H3.73C3.89,15.94 4.23,16.18 4.63,16.18A1,1 0 0,0 5.63,15.18C5.63,15.08 5.6,15 5.57,14.91L5.59,14.9L5,13.17L6.23,12.19C6.7,12.21 7.71,12.29 8.2,12.32C10.93,14.77 8.35,15.73 8.35,15.73L4.89,16.79L4.72,16.93C4.5,17.13 4.41,17.4 4.42,17.68L4.44,18.75L10.87,18.25C11.25,18.26 11.61,18.12 11.89,17.85L16.5,13.25C17.03,12.71 17.05,11.7 16.5,11.13Z" /></svg>
